X: 183
T: the Tattoo
B: C. & S. Thompson, "The Compleat Tutor for the Fife" c.1760 p.18 #3
S: http://imslp.org/wiki/The_Compleat_Tutor_for_the_Fife_(Anonymous)
Z: 2014 John Chambers <jc:trillian.mit.edu>
M: 2/4
L: 1/16
K: G
% - - - - - - - - - - - - - - - - - - - - - - - - -
|:\
(GA)(Bc) d2g2 | f2(af) d4 |\
D2(dc) [1 B2(AG) | A2(GF) G4 :|[2 (3(Bcd) .B.G | (3(ABc) .A.F G4 |]
[|\
(G/A/B/c/) d2efg2 | B2(AG) c2(BA) |\
(3(Bcd) cB A2D2 | GABc dgfg | "_Last part but once."TB2cA G4 |]
% - - - - - - - - - - - - - - - - - - - - - - - - -
